X: 310
P: Longways for as many as will
M: 6/8
L: 1/8
K: G
V: 1
d3- de=f | edc BAG | c2g B2g | aAA ABc |\
d3- de=f | edc BAG | cBc Agf | gGG G2 :|
|: z |\
dB/c/d/B/ GB/c/d/B/ | dB/c/d/B/ GB/c/d/B/ | cA/B/c/A/ FA/B/c/A/ | cA/B/c/A/ FA/B/c/A/ |\
dcB edc | fed gfe | dcB Agf | gGG G2 :|
V: 2 clef=bass middle=d
z |\
g3 G3 | c3 g3 | a3 g3 | f3 e3 |\
g3 G3 | c3 g3 | e2c d2D | g3 G2 :|
|: z |\
g3 z2z | G3 z2z | d3 z2z | D3 z2z |\

